X:23
T:Weary Fund O'Tow, The
C:arr. Carlo Minasi
M:3/4
L:1/8
B:Chappell's One Hundred Scotch Melodies
B:Arranged for the Concertina by Carlo Minasi
Q:"Andante  "1/4=140
Z:Peter Dunk 2012
K:G
!p!D|G>G G2 z G|(GA/B/ A3) G|\
(F>G) ([c2A2][B2G2]|[A4F4)] z B|G>G G3 G|\
(GA/B/ A3) G|(E>G [B2D2][A2C2])|[G4B,4]z||
%
d|(B>c d2) z G|(B>c d2) z G|\
(F>G) [c3A3] [BG]|[A4F4]"_cres."(d3/e/f/)|\
(g>f) e3 d|d>d {e}Hg3 !p!G|\
(E>G [B2D2] [A2C2])|[G4B,4]||

